src/images/crypto-icon-svg/icn.svg

<svg xmlns="http://www.w3.org/2000/svg" width="32" height="32" viewBox="0 0 32 32">
  <g fill="none" fill-rule="evenodd">
    <circle cx="16" cy="16" r="16" fill="#4C6F8C"/>
    <path fill="#FFF" fill-rule="nonzero" d="M20.8333333,7 L23.5,7 L23.5,25 L20.8333333,25 L20.8333333,7 Z M16.3888889,16 L19.0555556,16 L19.0555556,25 L16.3888889,25 L16.3888889,16 Z M11.9444444,11.5 L14.6111111,11.5 L14.6111111,25 L11.9444444,25 L11.9444444,11.5 Z M7.5,20.5 L10.1666667,20.5 L10.1666667,25 L7.5,25 L7.5,20.5 Z"/>
  </g>
</svg>

<svg xmlns="http://www.w3.org/2000/svg" width="32" height="32"><g fill="none" fill-rule="evenodd"><circle cx="16" cy="16" r="16" fill="#4C6F8C"/><path fill="#FFF" fill-rule="nonzero" d="M20.833 7H23.5v18h-2.667V7zm-4.444 9h2.667v9h-2.667v-9zm-4.445-4.5h2.667V25h-2.667V11.5zm-4.444 9h2.667V25H7.5v-4.5z"/></g></svg>
